X: 1
T: Spanish Dance
M: 6/8
L: 1/8
R: jig
K: Gmaj
Bc |\ 
d2 d e2 d | B2 B d2 B | A2 A AGA | B3 GBc |
d2 d e2 d | B2 B d2 B | A2 A AGA | G3 G2 g |
f2 d def | f2 d d2 e | c2 d B2 c | AGA A2 g |
f2 d def | f2 e e2 d | ^c2 A ABc | Bfe d |]
